public/assets/image/logo_cryptohub.svg

<svg width="139" height="40" viewBox="0 0 139 40" fill="none" xmlns="http://www.w3.org/2000/svg">
<path d="M20.5347 36C11.71 36 4.53467 28.8203 4.53467 20C4.53467 11.1797 11.7143 4 20.5347 4C29.3593 4 36.5347 11.1797 36.5347 20C36.5347 28.8203 29.355 36 20.5347 36ZM20.5347 5.28086C12.4211 5.28086 5.81981 11.8822 5.81981 19.9957C5.81981 28.1092 12.4211 34.7106 20.5347 34.7106C28.6482 34.7106 35.2495 28.1092 35.2495 19.9957C35.2495 11.8822 28.6482 5.28086 20.5347 5.28086Z" fill="url(#paint0_linear_692_6414)"/>
<path d="M20.5346 29.7457L10.2235 19.4346L20.5346 9.12344L30.8457 19.4346L20.5346 29.7457ZM12.0399 19.4346L20.5346 27.9293L29.0294 19.4346L20.5346 10.9398L12.0399 19.4346Z" fill="url(#paint1_linear_692_6414)"/>
<path d="M20.5346 25.0763L14.8928 19.4345L20.5346 13.7928L26.1764 19.4345L20.5346 25.0763ZM16.7092 19.4345L20.5346 23.26L24.36 19.4345L20.5346 15.6091L16.7092 19.4345Z" fill="url(#paint2_linear_692_6414)"/>
<path d="M42.809 19.8988V14.551V14.471H42.729H41.5381H41.4581V14.551V26.4171V26.4971H41.5381H42.729H42.809V26.4171V21.136L47.8155 26.4719L47.8392 26.4971H47.8738H49.4374H49.6228L49.4956 26.3622L43.944 20.4753L49.4444 14.6057L49.5706 14.471H49.386H47.8738H47.8389L47.8152 14.4966L42.809 19.8988Z" fill="#020000" stroke="black" stroke-width="0.16"/>
<path d="M56.5705 14.7367L56.5701 14.7366C56.0588 14.5618 55.45 14.471 54.7536 14.471H51.1766H51.0966V14.551V26.4171V26.4971H51.1766H52.3675H52.4475V26.4171V21.5408H54.511L57.4264 26.4579L57.4497 26.4971H57.4952H58.9217H59.0637L58.9902 26.3757L55.9954 21.432C56.4524 21.339 56.8558 21.1937 57.2047 20.995C57.5814 20.7847 57.8937 20.5211 58.1363 20.2124C58.3824 19.9047 58.5624 19.562 58.6851 19.1851C58.8078 18.8083 58.8689 18.4101 58.8689 17.9952C58.8689 17.502 58.786 17.038 58.6194 16.6083C58.4521 16.1769 58.1967 15.8028 57.8541 15.4821L57.8537 15.4818C57.5104 15.165 57.085 14.9155 56.5705 14.7367ZM56.8601 16.2737C57.2793 16.697 57.4923 17.2706 57.4923 17.9995C57.4923 18.705 57.2718 19.28 56.8378 19.7347C56.4046 20.1841 55.723 20.4169 54.7708 20.4169H52.4561V15.6334H54.7536C55.7514 15.6334 56.4451 15.8546 56.8601 16.2737Z" fill="#020000" stroke="black" stroke-width="0.16"/>
<path d="M60.1683 14.471H60.0356L60.0976 14.5884L63.9223 21.8233V26.4214V26.5014H64.0023H65.1889H65.2689V26.4214V21.8232L69.0638 14.5882L69.1253 14.471H68.993H67.6693H67.6198L67.5977 14.5153L64.5976 20.5364L61.5807 14.5152L61.5586 14.471H61.5092H60.1683Z" fill="#020000" stroke="black" stroke-width="0.16"/>
<path d="M71.9231 26.4971H72.0031V26.4171V21.438H74.3177C75.0136 21.438 75.6225 21.3516 76.1427 21.1724C76.6612 20.998 77.0876 20.7527 77.4189 20.4347C77.7486 20.1182 77.9951 19.7485 78.1578 19.3262C78.3201 18.9053 78.4031 18.45 78.4031 17.9652C78.4031 17.468 78.3202 17.0041 78.1536 16.5785C77.9909 16.148 77.7444 15.7735 77.4053 15.4607C77.0698 15.143 76.6393 14.8978 76.1294 14.7278C75.6181 14.5574 75.0094 14.471 74.3134 14.471H70.7322H70.6522V14.551V26.4171V26.4971H70.7322H71.9231ZM76.3992 19.6474C75.9885 20.0499 75.303 20.2627 74.3134 20.2627H72.0031V15.6334H74.3177C75.3169 15.6334 76.006 15.8424 76.4076 16.24C76.8127 16.6409 77.0222 17.2093 77.0222 17.9652C77.0222 18.6851 76.8093 19.2413 76.3992 19.6474Z" fill="#020000" stroke="black" stroke-width="0.16"/>
<path d="M79.4583 14.471H79.3783V14.551V15.5363V15.6163H79.4583H82.6896V26.4214V26.5014H82.7696H83.9562H84.0362V26.4214V15.6163H87.2505H87.3305V15.5363V14.551V14.471H87.2505H79.4583Z" fill="#020000" stroke="black" stroke-width="0.16"/>
<path d="M98.2058 24.9051L98.206 24.9049C98.736 24.3575 99.1571 23.7105 99.4607 22.9601C99.7649 22.2084 99.9164 21.3799 99.9164 20.4755C99.9164 19.5839 99.7649 18.7554 99.4608 17.9996C99.1574 17.2453 98.7405 16.5935 98.2054 16.054C97.6709 15.5152 97.0453 15.0938 96.3204 14.79C95.5987 14.4856 94.8126 14.3339 93.9633 14.3339C93.1138 14.3339 92.3322 14.4857 91.6063 14.7899L91.6061 14.79C90.8858 15.0938 90.2558 15.5151 89.7212 16.054L89.721 16.0542C89.1906 16.5933 88.7693 17.2407 88.4657 17.9997C88.1618 18.7597 88.0102 19.5838 88.0102 20.4755C88.0102 21.3799 88.1617 22.2084 88.4658 22.9601C88.7693 23.71 89.1861 24.3617 89.721 24.9054C90.2555 25.4486 90.8814 25.8701 91.6065 26.1697C92.3283 26.4697 93.1142 26.6171 93.9633 26.6171C94.8081 26.6171 95.5939 26.4697 96.3198 26.1698C97.0408 25.8745 97.6711 25.4529 98.2058 24.9051ZM90.7048 16.8603L90.7051 16.86C91.117 16.4355 91.6003 16.1117 92.1558 15.8845C92.711 15.6574 93.3132 15.5434 93.959 15.5434C94.6049 15.5434 95.207 15.6574 95.7622 15.8845C96.3177 16.1117 96.8011 16.4355 97.213 16.86C97.6245 17.2841 97.9446 17.7972 98.181 18.4052C98.4126 19.0116 98.5312 19.6998 98.5312 20.4755C98.5312 21.2511 98.4126 21.9394 98.181 22.5457C97.9445 23.1539 97.6243 23.6715 97.2127 24.0999C96.8007 24.5287 96.3174 24.8565 95.7622 25.0836C95.207 25.3107 94.6049 25.4247 93.959 25.4247C93.3132 25.4247 92.711 25.3107 92.1558 25.0836C91.6006 24.8565 91.1173 24.5287 90.7053 24.0999C90.2937 23.6715 89.9736 23.154 89.737 22.5458C89.5055 21.9395 89.3868 21.2469 89.3868 20.4755C89.3868 19.7042 89.5054 19.0159 89.737 18.4051C89.9736 17.7969 90.2937 17.2797 90.7048 16.8603Z" fill="#020000" stroke="black" stroke-width="0.16"/>
<path d="M103.199 26.5014H103.279V26.4214V20.9496H109.553V26.4214V26.5014H109.633H110.82H110.9V26.4214V14.551V14.471H110.82H109.633H109.553V14.551V19.8043H103.279V14.551V14.471H103.199H102.008H101.928V14.551V26.4214V26.5014H102.008H103.199Z" fill="#020000" stroke="black" stroke-width="0.16"/>
<path d="M114.755 14.551V14.471H114.675H113.577H113.497H113.489V14.551H113.417V22.0048C113.417 22.7955 113.525 23.4827 113.753 24.0642C113.975 24.6435 114.289 25.1293 114.689 25.5111C115.087 25.8922 115.556 26.1724 116.094 26.3517L116.094 26.3518C116.625 26.5259 117.199 26.6171 117.807 26.6171C118.414 26.6171 118.984 26.5303 119.52 26.3517C120.058 26.1724 120.526 25.8922 120.925 25.5111C121.324 25.1293 121.639 24.6434 121.861 24.064L121.861 24.0638C122.084 23.4787 122.196 22.7919 122.196 22.0048V14.551V14.471H122.116H120.93H120.85V14.551V22.0219C120.85 22.6282 120.773 23.1457 120.623 23.5763C120.472 24.0085 120.263 24.3578 120.003 24.6265C119.742 24.8956 119.427 25.0944 119.058 25.219L119.057 25.2193C118.69 25.3486 118.275 25.4118 117.82 25.4118C117.365 25.4118 116.95 25.3445 116.573 25.219C116.198 25.0899 115.879 24.8948 115.61 24.6256C115.342 24.3573 115.133 24.0085 114.982 23.5763C114.832 23.1457 114.755 22.6282 114.755 22.0219V14.551Z" fill="#020000" stroke="black" stroke-width="0.16"/>
<path d="M130.556 26.2487L130.556 26.2485C131.044 26.0788 131.456 25.8514 131.786 25.5605C132.117 25.2695 132.364 24.9212 132.535 24.5209C132.707 24.1205 132.79 23.6942 132.79 23.2428C132.79 22.8613 132.729 22.5012 132.61 22.1586L132.61 22.1586L132.61 22.1569C132.482 21.8145 132.307 21.5111 132.087 21.243C131.867 20.9745 131.607 20.7499 131.303 20.5695C131.087 20.4412 130.864 20.3438 130.631 20.2776C130.82 20.2071 131.001 20.1188 131.175 20.0126C131.435 19.8543 131.668 19.6606 131.871 19.427C132.074 19.193 132.238 18.9236 132.352 18.6147C132.472 18.3036 132.529 17.9466 132.529 17.5411C132.529 17.1154 132.45 16.7155 132.3 16.3419L132.3 16.3419L132.3 16.3412C132.145 15.9654 131.911 15.6385 131.598 15.3608C131.28 15.078 130.884 14.8633 130.414 14.7064L130.414 14.7064C129.937 14.5489 129.384 14.471 128.756 14.471H124.764H124.684V14.551V26.4171V26.4971H124.764H128.872C129.504 26.4971 130.066 26.4149 130.556 26.2487ZM130.533 19.1643L130.533 19.1643L130.532 19.1649C130.124 19.5284 129.521 19.7144 128.718 19.7144H126.03V15.6291H128.666C129.518 15.6291 130.137 15.8157 130.541 16.1784C130.946 16.5426 131.152 17.0296 131.152 17.6568C131.152 18.3063 130.945 18.8052 130.533 19.1643ZM128.739 20.8639C129.578 20.8639 130.231 21.0744 130.718 21.4834C131.2 21.891 131.444 22.4333 131.444 23.1272C131.444 23.8178 131.208 24.3555 130.752 24.7454C130.287 25.1365 129.639 25.339 128.791 25.339H126.035V20.8639H128.739Z" fill="#020000" stroke="black" stroke-width="0.16"/>
<defs>
<linearGradient id="paint0_linear_692_6414" x1="20.5336" y1="36.0007" x2="20.5336" y2="3.99769" gradientUnits="userSpaceOnUse">
<stop stop-color="#CC7822"/>
<stop offset="0.4966" stop-color="#FEE19C"/>
<stop offset="1" stop-color="#D88E42"/>
</linearGradient>
<linearGradient id="paint1_linear_692_6414" x1="20.5321" y1="29.7466" x2="20.5321" y2="9.12268" gradientUnits="userSpaceOnUse">
<stop stop-color="#D19435"/>
<stop offset="0.1303" stop-color="#E3AF54"/>
<stop offset="0.2719" stop-color="#F2C66E"/>
<stop offset="0.3985" stop-color="#FBD47E"/>
<stop offset="0.4966" stop-color="#FED984"/>
<stop offset="0.5959" stop-color="#FCD67F"/>
<stop offset="0.7152" stop-color="#F5CB70"/>
<stop offset="0.8447" stop-color="#EABB58"/>
<stop offset="0.9807" stop-color="#DBA436"/>
<stop offset="1" stop-color="#D9A031"/>
</linearGradient>
<linearGradient id="paint2_linear_692_6414" x1="20.5336" y1="25.0778" x2="20.5336" y2="13.7923" gradientUnits="userSpaceOnUse">
<stop stop-color="#F9CE57"/>
<stop offset="0.1447" stop-color="#F9D167"/>
<stop offset="0.3428" stop-color="#F9D377"/>
<stop offset="0.4966" stop-color="#F9D47D"/>
<stop offset="0.5959" stop-color="#F7D078"/>
<stop offset="0.7152" stop-color="#F0C669"/>
<stop offset="0.8447" stop-color="#E4B551"/>
<stop offset="0.9807" stop-color="#D59E2F"/>
<stop offset="1" stop-color="#D29A2A"/>
</linearGradient>
</defs>
</svg>

<svg width="139" height="40" fill="none" xmlns="http://www.w3.org/2000/svg"><path d="M20.535 36c-8.825 0-16-7.18-16-16s7.18-16 16-16c8.824 0 16 7.18 16 16s-7.18 16-16 16Zm0-30.72C12.42 5.28 5.82 11.883 5.82 19.997c0 8.113 6.601 14.715 14.715 14.715 8.113 0 14.714-6.602 14.714-14.715 0-8.114-6.6-14.715-14.714-14.715Z" fill="url(#a)"/><path d="M20.535 29.746 10.223 19.435 20.535 9.123l10.31 10.312-10.31 10.31ZM12.04 19.435l8.495 8.494 8.494-8.494-8.494-8.495-8.495 8.495Z" fill="url(#b)"/><path d="m20.535 25.076-5.642-5.642 5.642-5.641 5.641 5.642-5.641 5.641Zm-3.826-5.642 3.826 3.826 3.825-3.826-3.825-3.825-3.826 3.825Z" fill="url(#c)"/><path d="M42.809 19.899V14.47h-1.35v12.026h1.35v-5.361l5.007 5.336.023.025H49.623l-.127-.135-5.552-5.887 5.5-5.87.127-.134h-1.732l-.024.026-5.006 5.402ZM56.57 14.737c-.511-.175-1.12-.266-1.816-.266h-3.657v12.026h1.35v-4.956h2.064l2.915 4.917.024.04H59.064l-.074-.122-2.995-4.944c.457-.093.86-.238 1.21-.437.376-.21.689-.474.931-.783.246-.307.426-.65.55-1.027.122-.377.183-.775.183-1.19a3.81 3.81 0 0 0-.25-1.387 3.021 3.021 0 0 0-.765-1.126 3.608 3.608 0 0 0-1.283-.745Zm.29 1.537c.42.423.632.997.632 1.726 0 .705-.22 1.28-.654 1.735-.433.45-1.115.682-2.067.682h-2.315v-4.784h2.298c.997 0 1.691.222 2.106.64ZM60.168 14.471h-.132l.062.117 3.824 7.235v4.678H65.27v-4.678l3.795-7.235.061-.117H67.62l-.021.044-3 6.021-3.017-6.02-.022-.045H60.169ZM71.923 26.497h.08v-5.059h2.315c.696 0 1.305-.086 1.825-.266.518-.174.945-.42 1.276-.737a3.03 3.03 0 0 0 .739-1.109c.162-.42.245-.876.245-1.36 0-.498-.083-.962-.25-1.388a2.884 2.884 0 0 0-.748-1.117c-.335-.318-.766-.563-1.276-.733-.51-.17-1.12-.257-1.816-.257h-3.66v12.026h1.27Zm4.476-6.85c-.41.403-1.096.616-2.086.616h-2.31v-4.63h2.315c.999 0 1.688.21 2.09.607.405.4.614.97.614 1.725 0 .72-.213 1.276-.623 1.682ZM79.458 14.471h-.08v1.145H82.69v10.885h1.346V15.616h3.295v-1.145h-7.873ZM98.206 24.905a6 6 0 0 0 1.255-1.945c.304-.752.455-1.58.455-2.485 0-.891-.151-1.72-.455-2.475a5.8 5.8 0 0 0-1.256-1.946 5.756 5.756 0 0 0-1.885-1.264 6.005 6.005 0 0 0-2.357-.456c-.85 0-1.63.152-2.357.456-.72.304-1.35.725-1.885 1.264A5.824 5.824 0 0 0 88.466 18a6.603 6.603 0 0 0-.456 2.476c0 .904.152 1.732.456 2.484a5.89 5.89 0 0 0 1.255 1.945c.534.544 1.16.965 1.885 1.265a6.08 6.08 0 0 0 2.357.447 6.11 6.11 0 0 0 2.357-.447 5.542 5.542 0 0 0 1.886-1.265Zm-7.501-8.045a4.223 4.223 0 0 1 1.45-.976 4.721 4.721 0 0 1 1.804-.34 4.72 4.72 0 0 1 1.803.34 4.224 4.224 0 0 1 1.451.976c.412.424.732.937.968 1.545.232.607.35 1.295.35 2.07 0 .776-.118 1.464-.35 2.07a4.63 4.63 0 0 1-.968 1.555 4.186 4.186 0 0 1-1.45.984 4.72 4.72 0 0 1-1.804.34 4.721 4.721 0 0 1-1.803-.34 4.186 4.186 0 0 1-1.45-.984 4.63 4.63 0 0 1-.969-1.554c-.231-.607-.35-1.3-.35-2.07 0-.772.118-1.46.35-2.07.237-.61.557-1.126.968-1.546ZM103.199 26.501h.08V20.95h6.274V26.5H110.9v-12.03H109.553v5.333h-6.274v-5.333H101.928v12.03H103.199ZM114.755 14.551v-.08H113.489v.08h-.072v7.454c0 .79.108 1.478.336 2.06a3.9 3.9 0 0 0 .936 1.446c.398.381.867.661 1.405.84a5.48 5.48 0 0 0 1.713.266 5.38 5.38 0 0 0 1.713-.265 3.7 3.7 0 0 0 1.405-.84c.399-.383.714-.869.936-1.448.223-.585.335-1.272.335-2.06v-7.533h-1.346v7.55c0 .607-.077 1.125-.227 1.555-.151.433-.36.782-.62 1.05a2.34 2.34 0 0 1-.945.593h-.001c-.367.13-.782.193-1.237.193-.455 0-.87-.067-1.247-.193a2.471 2.471 0 0 1-.963-.593c-.268-.269-.477-.617-.628-1.05-.15-.43-.227-.948-.227-1.554V14.55ZM130.556 26.249c.488-.17.9-.398 1.23-.688.331-.291.578-.64.749-1.04.172-.4.255-.827.255-1.278 0-.382-.061-.742-.18-1.084v-.002a3.187 3.187 0 0 0-.523-.914 2.952 2.952 0 0 0-1.456-.965c.189-.07.37-.16.544-.265.26-.159.493-.352.696-.586a2.61 2.61 0 0 0 .481-.812c.12-.311.177-.668.177-1.074 0-.426-.079-.826-.229-1.2a2.646 2.646 0 0 0-.702-.98c-.318-.283-.714-.498-1.184-.655-.477-.157-1.03-.235-1.658-.235h-4.072v12.026h4.188c.632 0 1.194-.082 1.684-.248Zm-.023-7.085h-.001c-.408.364-1.011.55-1.814.55h-2.688V15.63h2.636c.852 0 1.471.187 1.875.55.405.364.611.85.611 1.478 0 .65-.207 1.148-.619 1.507Zm-1.794 1.7c.839 0 1.492.21 1.979.62.482.407.726.95.726 1.643 0 .69-.236 1.229-.692 1.618-.465.392-1.113.594-1.961.594h-2.756v-4.475h2.704Z" fill="#020000" stroke="#000" stroke-width=".16"/><defs><linearGradient id="a" x1="20.534" y1="36.001" x2="20.534" y2="3.998" gradientUnits="userSpaceOnUse"><stop stop-color="#CC7822"/><stop offset=".497" stop-color="#FEE19C"/><stop offset="1" stop-color="#D88E42"/></linearGradient><linearGradient id="b" x1="20.532" y1="29.747" x2="20.532" y2="9.123" gradientUnits="userSpaceOnUse"><stop stop-color="#D19435"/><stop offset=".13" stop-color="#E3AF54"/><stop offset=".272" stop-color="#F2C66E"/><stop offset=".399" stop-color="#FBD47E"/><stop offset=".497" stop-color="#FED984"/><stop offset=".596" stop-color="#FCD67F"/><stop offset=".715" stop-color="#F5CB70"/><stop offset=".845" stop-color="#EABB58"/><stop offset=".981" stop-color="#DBA436"/><stop offset="1" stop-color="#D9A031"/></linearGradient><linearGradient id="c" x1="20.534" y1="25.078" x2="20.534" y2="13.792" gradientUnits="userSpaceOnUse"><stop stop-color="#F9CE57"/><stop offset=".145" stop-color="#F9D167"/><stop offset=".343" stop-color="#F9D377"/><stop offset=".497" stop-color="#F9D47D"/><stop offset=".596" stop-color="#F7D078"/><stop offset=".715" stop-color="#F0C669"/><stop offset=".845" stop-color="#E4B551"/><stop offset=".981" stop-color="#D59E2F"/><stop offset="1" stop-color="#D29A2A"/></linearGradient></defs></svg>
